X: 19085
T: Irish Girl, The
R: reel
M: 4/4
K: Dmixolydian
|:FGAF DEFD|EA,~A,2 CDEG|FGAF D2FA|1 (3B^cd ec dBAG:|2 (3B^cd ec d3A||
fd{e}d^c dfaf|ec~c2 efge|fd{e}d^c dfaf|gbag fdd2|
fdd/d/d fdad|ec~c2 efge|dfaf gfed|^cABc dBAG|

